X: 12112
T: Eve's
R: slip jig
M: 9/8
K: Bminor
|:BcB BAF d2A|BcB BAF AFA|BcB BAF d2e|1 fed edB AFA:|2 fed edB AFD||
|:EEE dBc d2D|EEE dBc BAF|EEE dBc d2e|1 fed edB AFD:|2 fed edB AFE||
|:Ddd dcd Bcd|D2d dcd edB|Add dcd Bcd|efe e2f gfe:|
|:AfA gef g2a|AfA gef edB|AfA gef g2e|1 fed edB dBG:|2 fed edB AFA||

